svg/u1f468_1f3fd_200d_2708.svg

<svg viewBox="0 0 128 128" xmlns="http://www.w3.org/2000/svg">
  <g id="neck_1_">
    <polygon fill="#99674F" points="73.63,112.3 73.63,89.51 64,89.51 54.37,89.51 54.37,112.3 "/>
  </g>
  <radialGradient id="suit_back_layer_2_" cx="64.6139" cy="121.182" gradientTransform="matrix(1 0 0 0.5476 0 57.6522)" gradientUnits="userSpaceOnUse" r="52.4973">
    <stop offset="0.7824" stop-color="#212121"/>
    <stop offset="1" stop-color="#616161"/>
  </radialGradient>
  <path id="suit_back_layer_1_" d="M116.52,123.96v-3.11c0-9.38-8.44-15.34-15.73-18.43 c-6.45-2.74-14.28-5.1-23.99-5.8c0,0-2.92,19.52-12.65,19.38c-8.32-0.12-11.91-19.41-11.91-19.41 c-20.55,1.94-40.75,9.46-40.75,24.26v3.11H116.52z" fill="url(#suit_back_layer_2_)"/>
  <g id="suit_top_1_">
    <polygon fill="#E0E0E0" points="71.91,123.96 75.34,106 52.66,106 56.5,123.96 "/>
    <g>
      <polygon fill="#212121" points="66.85,113.53 61.22,113.53 59.44,106.03 68.56,106.03 "/>
      <polygon fill="#212121" points="67.96,123.96 66.82,113.53 61.18,113.53 60.04,123.96 "/>
    </g>
    <g>
      <path d="M63.98,106l-8.65,7.19l-1.62,1.35l-3.49-17.81c0.5-0.06,1-0.11,1.5-0.15 c1.11-0.11,1.37-0.2,2.49-0.27c0,0,1.81,3.08,3.66,5.5C61.04,105.94,63.98,106,63.98,106z" fill="#FAFAFA"/>
      <path d="M77.76,96.78l-3.48,17.76L63.99,106c0,0,2.96-0.06,6.13-4.19c1.92-2.5,3.67-5.48,3.67-5.48 c1.12,0.08,1.38,0.17,2.49,0.28C76.78,96.66,77.27,96.71,77.76,96.78z" fill="#FAFAFA"/>
    </g>
    <g>
      <path d="M55.23,113.19l-3.61-16.61c-0.5,0.04-1,0.09-1.5,0.15c-3.16,0.34-8.08,1.18-8.08,1.18l-3.1,6.57 l7.12,4.36l-4.75,6.11l9.25,9.01h6l0,0h1.01L55.23,113.19z" fill="#424242"/>
      <path d="M72.77,113.19l3.61-16.61c0.5,0.04,1,0.09,1.5,0.15c3.35,0.22,8.01,1.03,8.01,1.03l3.17,6.72 l-7.12,4.36l4.75,6.11l-9.25,9.01h-6l0,0h-1.01L72.77,113.19z" fill="#424242"/>
    </g>
  </g>
  <g id="emblem_1_">
    <path d="M92.2,119.78c-0.04,0.02-0.08,0.04-0.12,0.04h-4.12c-0.15,0-0.21,0.19-0.09,0.28 c0.1,0.07,0.19,0.14,0.29,0.2c0.33,0.23,0.73,0.34,1.13,0.34h3.23C92.43,120.34,92.32,120.05,92.2,119.78z" fill="#FFC107"/>
    <path d="M92,119.38c-0.22-0.42-0.43-0.74-0.59-0.96h-5.29c-0.11,0-0.17,0.14-0.08,0.22 c0.05,0.05,0.1,0.09,0.15,0.14c0.45,0.4,1.03,0.61,1.62,0.61H92V119.38z" fill="#FFC107"/>
    <path d="M92.65,121.1h-2.84c-0.09,0-0.12,0.12-0.04,0.16c1.72,0.86,2.69,0.8,2.69,0.8h0.33 C92.77,121.73,92.72,121.4,92.65,121.1z" fill="#FFC107"/>
    <path d="M102.04,119.82h-4.12c-0.05,0-0.09-0.02-0.12-0.04c-0.12,0.26-0.23,0.56-0.32,0.87h3.23 c0.4,0,0.8-0.12,1.13-0.34c0.09-0.06,0.19-0.13,0.29-0.2C102.25,120.02,102.19,119.82,102.04,119.82z" fill="#FFC107"/>
    <path d="M103.88,118.41h-5.29c-0.16,0.22-0.37,0.54-0.59,0.96h4.18c0.6,0,1.18-0.21,1.62-0.61 c0.05-0.05,0.1-0.09,0.15-0.14C104.04,118.55,103.99,118.41,103.88,118.41z" fill="#FFC107"/>
    <path d="M100.19,121.1h-2.84c-0.07,0.31-0.12,0.63-0.15,0.96h0.33c0,0,0.97,0.06,2.69-0.8 C100.31,121.22,100.28,121.1,100.19,121.1z" fill="#FFC107"/>
    <path d="M96.78,117.29c-0.32,0.15-0.7,0.24-1.04,0.29c-0.49,0.07-0.99,0.07-1.48,0 c-0.35-0.05-0.72-0.14-1.04-0.29c-0.2-0.09-0.44,0.01-0.52,0.21l-0.33,0.83c-0.09,0.22-0.07,0.36,0.01,0.47 c0.3,0.4,1,1.5,1.05,2.83c0.01,0.15,0.08,0.28,0.22,0.35c0.27,0.13,0.75,0.38,1.11,0.68c0.15,0.12,0.36,0.12,0.51,0 c0.36-0.3,0.83-0.54,1.11-0.68c0.13-0.06,0.21-0.2,0.22-0.35c0.05-1.33,0.75-2.42,1.05-2.83c0.08-0.11,0.1-0.25,0.04-0.37 c-0.09-0.23-0.25-0.62-0.37-0.92C97.22,117.3,96.98,117.2,96.78,117.29z" fill="#FFC107"/>
  </g>
  <g id="face">
    <path id="ears" d="M91.33,50.43H36.67c-5.89,0-10.71,5.14-10.71,11.41c0,6.28,4.82,11.41,10.71,11.41h54.65 c5.89,0,10.71-5.14,10.71-11.41C102.04,55.57,97.22,50.43,91.33,50.43z" fill="#99674F"/>
    <path id="head" d="M64,11.07c-17.4,0-33.52,18.61-33.52,45.39c0,26.64,16.61,39.81,33.52,39.81 S97.52,83.1,97.52,56.46C97.52,29.68,81.4,11.07,64,11.07z" fill="#BA8D68"/>
    <g id="eyes">
      <ellipse cx="47.56" cy="58.81" fill="#49362E" rx="4.93" ry="5.1"/>
      <ellipse cx="80.44" cy="58.81" fill="#49362E" rx="4.93" ry="5.1"/>
    </g>
    <path id="nose" d="M67.86,68.06c-0.11-0.04-0.21-0.07-0.32-0.08h-7.07c-0.11,0.01-0.22,0.04-0.32,0.08 c-0.64,0.26-0.99,0.92-0.69,1.63s1.71,2.69,4.55,2.69c2.84,0,4.25-1.99,4.55-2.69C68.85,68.98,68.5,68.32,67.86,68.06z" fill="#99674F"/>
    <path id="mouth" d="M72.42,76.14c-3.19,1.89-13.63,1.89-16.81,0c-1.83-1.09-3.7,0.58-2.94,2.24 c0.75,1.63,6.45,5.42,11.37,5.42s10.55-3.79,11.3-5.42C76.09,76.72,74.25,75.05,72.42,76.14z" fill="#5D4037"/>
  </g>
  <g id="hairGroup">
    <path id="hair_7_" d="M64.02,6.03L64.02,6.03c-0.01,0-0.01,0-0.02,0c-0.01,0-0.01,0-0.02,0l0,0 C18.55,6.27,27.85,56.17,27.85,56.17s2.04,5.35,2.97,7.71c0.13,0.34,0.63,0.3,0.71-0.05c0.97-4.34,4.46-19.73,6.22-24.41 c1.04-2.76,3.9-4.36,6.79-3.83C49,36.4,56.09,37.4,63.92,37.4c0.03,0,0.06,0,0.08,0c0.03,0,0.06,0,0.08,0 c7.82,0,14.92-1,19.37-1.81c2.9-0.53,5.76,1.08,6.79,3.83c1.75,4.66,5.22,19.96,6.2,24.36c0.08,0.36,0.58,0.39,0.71,0.05l2.98-7.67 C100.15,56.17,109.46,6.27,64.02,6.03z" fill="#543930"/>
    <radialGradient id="hairHighlights_1_" cx="64" cy="80.3343" gradientTransform="matrix(1 0 0 -1.1282 0 138.2978)" gradientUnits="userSpaceOnUse" r="37.8736">
      <stop offset="0.7945" stop-color="#6D4C41" stop-opacity="0"/>
      <stop offset="1" stop-color="#6D4C41"/>
    </radialGradient>
    <path id="hairHighlights" d="M100.15,56.17c0,0,9.31-49.9-36.13-50.14v0 c-0.01,0-0.01,0-0.02,0h0c-0.01,0-0.01,0-0.02,0l0,0c-0.71,0-1.4,0.02-2.08,0.05c-1.35,0.06-2.66,0.16-3.92,0.31 c-0.01,0-0.03,0-0.04,0c-0.09,0.01-0.17,0.03-0.26,0.04c-38.25,4.81-29.84,49.74-29.84,49.74l2.98,7.68 c0.13,0.34,0.62,0.31,0.7-0.05c0.98-4.39,4.46-19.71,6.22-24.37c1.04-2.76,3.9-4.36,6.8-3.83C49,36.4,56.09,37.4,63.92,37.4 c0.03,0,0.06,0,0.08,0c0.03,0,0.06,0,0.08,0c7.82,0,14.92-1,19.37-1.81c2.9-0.53,5.76,1.08,6.79,3.83 c1.76,4.68,5.25,20.1,6.22,24.42c0.08,0.36,0.57,0.39,0.7,0.05C98.1,61.54,100.15,56.17,100.15,56.17z" fill="url(#hairHighlights_1_)"/>
  </g>
  <g id="cap_1_">
    <g>
      <linearGradient id="SVGID_1_" gradientTransform="matrix(1 0 0 -1 0 128)" gradientUnits="userSpaceOnUse" x1="64.6158" x2="64.6158" y1="100.1505" y2="83.0181">
        <stop offset="4.000000e-03" stop-color="#666666"/>
        <stop offset="0.0797" stop-color="#606060"/>
        <stop offset="0.5459" stop-color="#3F3F3F"/>
        <stop offset="0.8021" stop-color="#333333"/>
      </linearGradient>
      <path d="M63.76,24.17c-33.25,0-37.4,11.41-37.4,11.41s9.07,9.86,37.4,10.05 c28.34-0.19,39.11-10.73,39.11-10.73S97.02,24.17,63.76,24.17z" fill="url(#SVGID_1_)"/>
    </g>
    <path d="M23.33,34.04c1.62,5.94,3.18,8.39,3.18,8.39c1.65-1.91,10.26-10.96,37.4-10.96h0.11h0.04 c27.13,0,34.68,9.05,36.32,10.97c0,0,2.66-2.65,4.29-8.59C108.43,20.1,90.87,4.71,64.01,4.71C37.22,4.72,19.58,20.32,23.33,34.04z" fill="#303030"/>
    <path d="M96.91,38.8c-5.84-3.2-15.59-7-32.85-7H63.9c-17.3,0-27.74,3.82-33.71,7 c-0.6-0.91-0.97-2.36-0.74-3.56l0.01-0.06c0.19-1.04,0.76-1.99,1.59-2.66c3.49-2.79,14-9.73,32.77-9.73 c18.29,0,29.09,6.94,32.7,9.74c0.87,0.67,1.46,1.62,1.66,2.71C98.41,36.45,97.52,37.89,96.91,38.8z" fill="#212121"/>
    <g>
      <path d="M57.28,20.28c-0.09,0.06-0.18,0.1-0.29,0.1h-9.84c-0.36,0-0.5,0.46-0.21,0.67 c0.23,0.17,0.46,0.33,0.69,0.48c0.8,0.54,1.74,0.82,2.71,0.82h7.72C57.83,21.61,57.57,20.91,57.28,20.28z" fill="#FFC107"/>
      <path d="M56.81,19.31c-0.52-1-1.03-1.78-1.4-2.3H42.77c-0.27,0-0.4,0.34-0.2,0.51 c0.12,0.11,0.25,0.22,0.37,0.33c1.07,0.94,2.45,1.46,3.88,1.46H56.81z" fill="#FFC107"/>
      <path d="M58.35,23.42h-6.79c-0.21,0-0.28,0.29-0.09,0.39c4.11,2.05,6.44,1.91,6.44,1.91h0.79 C58.65,24.92,58.53,24.15,58.35,23.42z" fill="#FFC107"/>
      <path d="M80.79,20.38h-9.84c-0.11,0-0.21-0.04-0.29-0.1c-0.29,0.63-0.55,1.33-0.78,2.07h7.72 c0.96,0,1.91-0.28,2.71-0.82c0.23-0.15,0.45-0.31,0.69-0.48C81.29,20.84,81.15,20.38,80.79,20.38z" fill="#FFC107"/>
      <path d="M85.18,17.01H72.54c-0.37,0.52-0.88,1.3-1.4,2.3h9.99c1.43,0,2.81-0.51,3.88-1.46 c0.12-0.11,0.24-0.22,0.37-0.33C85.57,17.34,85.44,17.01,85.18,17.01z" fill="#FFC107"/>
      <path d="M76.38,23.42h-6.79c-0.17,0.73-0.29,1.5-0.35,2.3h0.79c0,0,2.33,0.14,6.44-1.91 C76.65,23.71,76.59,23.42,76.38,23.42z" fill="#FFC107"/>
      <path d="M68.22,14.33c-0.76,0.35-1.66,0.56-2.49,0.69c-1.17,0.18-2.36,0.18-3.53,0 c-0.83-0.13-1.73-0.34-2.49-0.69c-0.48-0.22-1.04,0.02-1.24,0.51l-0.8,1.98c-0.21,0.52-0.17,0.86,0.02,1.12 c0.71,0.96,2.39,3.59,2.5,6.76c0.01,0.35,0.2,0.67,0.52,0.83c0.65,0.31,1.79,0.91,2.64,1.61c0.36,0.3,0.86,0.3,1.22,0 c0.86-0.71,1.99-1.3,2.64-1.61c0.32-0.15,0.51-0.47,0.52-0.83c0.11-3.17,1.8-5.79,2.5-6.76c0.19-0.26,0.23-0.6,0.11-0.89 c-0.23-0.56-0.6-1.49-0.89-2.21C69.27,14.35,68.7,14.11,68.22,14.33z" fill="#FFC107"/>
    </g>
  </g>
  <radialGradient id="SVGID_2_" cx="64.2682" cy="92.0013" gradientTransform="matrix(1 0 0 -0.6655 0 97.2271)" gradientUnits="userSpaceOnUse" r="48.5787">
    <stop offset="0.6313" stop-color="#212121" stop-opacity="0"/>
    <stop offset="0.9176" stop-color="#BFBEBE"/>
  </radialGradient>
  <path d="M23.33,34.04c1.62,5.94,3.18,8.39,3.18,8.39 c1.65-1.92,10.32-11.19,37.45-11.19c0.01,0,0.12,0,0.12,0l0,0c0,0,0,0,0.04,0c27.14,0,34.61,9.27,36.26,11.19 c0,0,2.86-2.83,4.36-8.81c3.53-14.14-14.69-28.91-40.53-28.91C37.14,4.71,19.58,20.32,23.33,34.04z" enable-background="new " fill="url(#SVGID_2_)" opacity="0.3"/>
  <g id="eyebrows_1_">
    <path d="M40.01,50.7c2.99-4.23,9.78-4.63,13.67-1.48c0.62,0.5,1.44,1.2,1.68,1.98 c0.4,1.27-0.82,2.26-2.01,1.96c-0.76-0.19-1.47-0.6-2.22-0.83c-1.37-0.43-2.36-0.55-3.59-0.55c-1.82-0.01-2.99,0.22-4.72,0.92 c-0.71,0.29-1.29,0.75-2.1,0.41C39.79,52.72,39.44,51.54,40.01,50.7z" fill="#613E31"/>
    <path d="M86.06,53.1c-0.29-0.13-0.57-0.29-0.86-0.41c-1.78-0.74-2.79-0.93-4.72-0.92 c-1.7,0.01-2.71,0.24-4.04,0.69c-0.81,0.28-1.84,0.98-2.74,0.71c-1.32-0.4-1.28-1.84-0.56-2.76c0.86-1.08,2.04-1.9,3.29-2.44 c2.9-1.26,6.44-1.08,9.17,0.55c0.89,0.53,1.86,1.26,2.4,2.18C88.79,52.01,87.61,53.73,86.06,53.1z" fill="#613E31"/>
  </g>
</svg>

<svg viewBox="0 0 128 128" xmlns="http://www.w3.org/2000/svg">
  <defs>
    <radialGradient id="suit_back_layer_2_" cx="64.6139" cy="226.463592" gradientTransform="matrix(1 0 0 0.5476 0 0)" gradientUnits="userSpaceOnUse" r="52.4973">
      <stop offset="0.7824" stop-color="#212121"/>
      <stop offset="1" stop-color="#616161"/>
    </radialGradient>
    <radialGradient id="SVGID_2_" cx="64.2682" cy="-54.095019" gradientTransform="matrix(1 0 0 -0.6655 0 0)" gradientUnits="userSpaceOnUse" r="48.5787">
      <stop offset="0.6313" stop-color="#212121" stop-opacity="0"/>
      <stop offset="0.9176" stop-color="#BFBEBE"/>
    </radialGradient>
    <radialGradient id="hairHighlights_1_" cx="64" cy="-42.248398" gradientTransform="matrix(1 0 0 -1.1282 0 0)" gradientUnits="userSpaceOnUse" r="37.8736">
      <stop offset="0.7945" stop-color="#6D4C41" stop-opacity="0"/>
      <stop offset="1" stop-color="#6D4C41"/>
    </radialGradient>
    <linearGradient id="SVGID_1_" gradientTransform="matrix(1 0 0 -1 0 0)" gradientUnits="userSpaceOnUse" x1="64.6158" x2="64.6158" y1="-27.8495" y2="-44.9819">
      <stop offset="4.000000e-03" stop-color="#666666"/>
      <stop offset="0.0797" stop-color="#606060"/>
      <stop offset="0.5459" stop-color="#3F3F3F"/>
      <stop offset="0.8021" stop-color="#333333"/>
    </linearGradient>
  </defs>
  <path d="M73.63,112.3 L73.63,89.51 L64,89.51 L54.37,89.51 L54.37,112.3 Z" fill="#99674F"/>
  <path id="suit_back_layer_1_" d="M116.52,123.96 L116.52,120.85 C116.52,111.47 108.08,105.51 100.79,102.42 C94.34,99.68 86.51,97.32 76.8,96.62 C76.8,96.62 73.88,116.14 64.15,116 C55.83,115.88 52.24,96.59 52.24,96.59 C31.69,98.53 11.49,106.05 11.49,120.85 L11.49,123.96 L116.52,123.96 Z" fill="url(#suit_back_layer_2_)"/>
  <path d="M71.91,123.96 L75.34,106 L52.66,106 L56.5,123.96 Z" fill="#E0E0E0"/>
  <path d="M66.85,113.53 L61.22,113.53 L59.44,106.03 L68.56,106.03 Z" fill="#212121"/>
  <path d="M67.96,123.96 L66.82,113.53 L61.18,113.53 L60.04,123.96 Z" fill="#212121"/>
  <path d="M63.98,106 L55.33,113.19 L53.71,114.54 L50.22,96.73 C50.72,96.67 51.22,96.62 51.72,96.58 C52.83,96.47 53.09,96.38 54.21,96.31 C54.21,96.31 56.02,99.39 57.87,101.81 C61.04,105.94 63.98,106 63.98,106 Z" fill="#FAFAFA"/>
  <path d="M77.76,96.78 L74.28,114.54 L63.99,106 C63.99,106 66.95,105.94 70.12,101.81 C72.04,99.31 73.79,96.33 73.79,96.33 C74.91,96.41 75.17,96.5 76.28,96.61 C76.78,96.66 77.27,96.71 77.76,96.78 Z" fill="#FAFAFA"/>
  <path d="M55.23,113.19 L51.62,96.58 C51.12,96.62 50.62,96.67 50.12,96.73 C46.96,97.07 42.04,97.91 42.04,97.91 L38.94,104.48 L46.06,108.84 L41.31,114.95 L50.56,123.96 L56.56,123.96 L56.56,123.96 L57.57,123.96 L55.23,113.19 Z" fill="#424242"/>
  <path d="M72.77,113.19 L76.38,96.58 C76.88,96.62 77.38,96.67 77.88,96.73 C81.23,96.95 85.89,97.76 85.89,97.76 L89.06,104.48 L81.94,108.84 L86.69,114.95 L77.44,123.96 L71.44,123.96 L71.44,123.96 L70.43,123.96 L72.77,113.19 Z" fill="#424242"/>
  <path d="M92.2,119.78 C92.16,119.8 92.12,119.82 92.08,119.82 L87.96,119.82 C87.81,119.82 87.75,120.01 87.87,120.1 C87.97,120.17 88.06,120.24 88.16,120.3 C88.49,120.53 88.89,120.64 89.29,120.64 L92.52,120.64 C92.43,120.34 92.32,120.05 92.2,119.78 Z" fill="#FFC107"/>
  <path d="M92,119.38 C91.78,118.96 91.57,118.64 91.41,118.42 L86.12,118.42 C86.01,118.42 85.95,118.56 86.04,118.64 C86.09,118.69 86.14,118.73 86.19,118.78 C86.64,119.18 87.22,119.39 87.81,119.39 L92,119.39 L92,119.38 Z" fill="#FFC107"/>
  <path d="M92.65,121.1 L89.81,121.1 C89.72,121.1 89.69,121.22 89.77,121.26 C91.49,122.12 92.46,122.06 92.46,122.06 L92.79,122.06 C92.77,121.73 92.72,121.4 92.65,121.1 Z" fill="#FFC107"/>
  <path d="M102.04,119.82 L97.92,119.82 C97.87,119.82 97.83,119.8 97.8,119.78 C97.68,120.04 97.57,120.34 97.48,120.65 L100.71,120.65 C101.11,120.65 101.51,120.53 101.84,120.31 C101.93,120.25 102.03,120.18 102.13,120.11 C102.25,120.02 102.19,119.82 102.04,119.82 Z" fill="#FFC107"/>
  <path d="M103.88,118.41 L98.59,118.41 C98.43,118.63 98.22,118.95 98,119.37 L102.18,119.37 C102.78,119.37 103.36,119.16 103.8,118.76 C103.85,118.71 103.9,118.67 103.95,118.62 C104.04,118.55 103.99,118.41 103.88,118.41 Z" fill="#FFC107"/>
  <path d="M100.19,121.1 L97.35,121.1 C97.28,121.41 97.23,121.73 97.2,122.06 L97.53,122.06 C97.53,122.06 98.5,122.12 100.22,121.26 C100.31,121.22 100.28,121.1 100.19,121.1 Z" fill="#FFC107"/>
  <path d="M96.78,117.29 C96.46,117.44 96.08,117.53 95.74,117.58 C95.25,117.65 94.75,117.65 94.26,117.58 C93.91,117.53 93.54,117.44 93.22,117.29 C93.02,117.2 92.78,117.3 92.7,117.5 L92.37,118.33 C92.28,118.55 92.3,118.69 92.38,118.8 C92.68,119.2 93.38,120.3 93.43,121.63 C93.44,121.78 93.51,121.91 93.65,121.98 C93.92,122.11 94.4,122.36 94.76,122.66 C94.91,122.78 95.12,122.78 95.27,122.66 C95.63,122.36 96.1,122.12 96.38,121.98 C96.51,121.92 96.59,121.78 96.6,121.63 C96.65,120.3 97.35,119.21 97.65,118.8 C97.73,118.69 97.75,118.55 97.69,118.43 C97.6,118.2 97.44,117.81 97.32,117.51 C97.22,117.3 96.98,117.2 96.78,117.29 Z" fill="#FFC107"/>
  <path id="ears" d="M91.33,50.43 L36.67,50.43 C30.78,50.43 25.96,55.57 25.96,61.84 C25.96,68.12 30.78,73.25 36.67,73.25 L91.32,73.25 C97.21,73.25 102.03,68.11 102.03,61.84 C102.04,55.57 97.22,50.43 91.33,50.43 Z" fill="#99674F"/>
  <path id="head" d="M64,11.07 C46.6,11.07 30.48,29.68 30.48,56.46 C30.48,83.1 47.09,96.27 64,96.27 C80.91,96.27 97.52,83.1 97.52,56.46 C97.52,29.68 81.4,11.07 64,11.07 Z" fill="#BA8D68"/>
  <path d="M52.49,58.81 A4.93 5.1 0 1 1 42.63,58.81 A4.93 5.1 0 1 1 52.49,58.81 Z" fill="#49362E"/>
  <path d="M85.37,58.81 A4.93 5.1 0 1 1 75.51,58.81 A4.93 5.1 0 1 1 85.37,58.81 Z" fill="#49362E"/>
  <path id="nose" d="M67.86,68.06 C67.75,68.02 67.65,67.99 67.54,67.98 L60.47,67.98 C60.36,67.99 60.25,68.02 60.15,68.06 C59.51,68.32 59.16,68.98 59.46,69.69 C59.76,70.4 61.17,72.38 64.01,72.38 C66.85,72.38 68.26,70.39 68.56,69.69 C68.85,68.98 68.5,68.32 67.86,68.06 Z" fill="#99674F"/>
  <path id="mouth" d="M72.42,76.14 C69.23,78.03 58.79,78.03 55.61,76.14 C53.78,75.05 51.91,76.72 52.67,78.38 C53.42,80.01 59.12,83.8 64.04,83.8 C68.96,83.8 74.59,80.01 75.34,78.38 C76.09,76.72 74.25,75.05 72.42,76.14 Z" fill="#5D4037"/>
  <path id="hair_7_" d="M64.02,6.03 L64.02,6.03 C64.01,6.03 64.01,6.03 64,6.03 C63.99,6.03 63.99,6.03 63.98,6.03 L63.98,6.03 C18.55,6.27 27.85,56.17 27.85,56.17 C27.85,56.17 29.89,61.52 30.82,63.88 C30.95,64.22 31.45,64.18 31.53,63.83 C32.5,59.49 35.99,44.1 37.75,39.42 C38.79,36.66 41.65,35.06 44.54,35.59 C49,36.4 56.09,37.4 63.92,37.4 C63.95,37.4 63.98,37.4 64,37.4 C64.03,37.4 64.06,37.4 64.08,37.4 C71.9,37.4 79,36.4 83.45,35.59 C86.35,35.06 89.21,36.67 90.24,39.42 C91.99,44.08 95.46,59.38 96.44,63.78 C96.52,64.14 97.02,64.17 97.15,63.83 L100.13,56.16 C100.15,56.17 109.46,6.27 64.02,6.03 Z" fill="#543930"/>
  <path id="hairHighlights" d="M100.15,56.17 C100.15,56.17 109.46,6.27 64.02,6.03 L64.02,6.03 C64.01,6.03 64.01,6.03 64,6.03 L64,6.03 C63.99,6.03 63.99,6.03 63.98,6.03 L63.98,6.03 C63.27,6.03 62.58,6.05 61.9,6.08 C60.55,6.14 59.24,6.24 57.98,6.39 C57.97,6.39 57.95,6.39 57.94,6.39 C57.85,6.4 57.77,6.42 57.68,6.43 C19.43,11.24 27.84,56.17 27.84,56.17 L30.82,63.85 C30.95,64.19 31.44,64.16 31.52,63.8 C32.5,59.41 35.98,44.09 37.74,39.43 C38.78,36.67 41.64,35.07 44.54,35.6 C49,36.4 56.09,37.4 63.92,37.4 C63.95,37.4 63.98,37.4 64,37.4 C64.03,37.4 64.06,37.4 64.08,37.4 C71.9,37.4 79,36.4 83.45,35.59 C86.35,35.06 89.21,36.67 90.24,39.42 C92,44.1 95.49,59.52 96.46,63.84 C96.54,64.2 97.03,64.23 97.16,63.89 C98.1,61.54 100.15,56.17 100.15,56.17 Z" fill="url(#hairHighlights_1_)"/>
  <path d="M63.76,24.17 C30.51,24.17 26.36,35.58 26.36,35.58 C26.36,35.58 35.43,45.44 63.76,45.63 C92.1,45.44 102.87,34.9 102.87,34.9 C102.87,34.9 97.02,24.17 63.76,24.17 Z" fill="url(#SVGID_1_)"/>
  <path d="M23.33,34.04 C24.95,39.98 26.51,42.43 26.51,42.43 C28.16,40.52 36.77,31.47 63.91,31.47 L64.02,31.47 L64.06,31.47 C91.19,31.47 98.74,40.52 100.38,42.44 C100.38,42.44 103.04,39.79 104.67,33.85 C108.43,20.1 90.87,4.71 64.01,4.71 C37.22,4.72 19.58,20.32 23.33,34.04 Z" fill="#303030"/>
  <path d="M96.91,38.8 C91.07,35.6 81.32,31.8 64.06,31.8 L63.9,31.8 C46.6,31.8 36.16,35.62 30.19,38.8 C29.59,37.89 29.22,36.44 29.45,35.24 L29.46,35.18 C29.65,34.14 30.22,33.19 31.05,32.52 C34.54,29.73 45.05,22.79 63.82,22.79 C82.11,22.79 92.91,29.73 96.52,32.53 C97.39,33.2 97.98,34.15 98.18,35.24 C98.41,36.45 97.52,37.89 96.91,38.8 Z" fill="#212121"/>
  <path d="M57.28,20.28 C57.19,20.34 57.1,20.38 56.99,20.38 L47.15,20.38 C46.79,20.38 46.65,20.84 46.94,21.05 C47.17,21.22 47.4,21.38 47.63,21.53 C48.43,22.07 49.37,22.35 50.34,22.35 L58.06,22.35 C57.83,21.61 57.57,20.91 57.28,20.28 Z" fill="#FFC107"/>
  <path d="M56.81,19.31 C56.29,18.31 55.78,17.53 55.41,17.01 L42.77,17.01 C42.5,17.01 42.37,17.35 42.57,17.52 C42.69,17.63 42.82,17.74 42.94,17.85 C44.01,18.79 45.39,19.31 46.82,19.31 L56.81,19.31 Z" fill="#FFC107"/>
  <path d="M58.35,23.42 L51.56,23.42 C51.35,23.42 51.28,23.71 51.47,23.81 C55.58,25.86 57.91,25.72 57.91,25.72 L58.7,25.72 C58.65,24.92 58.53,24.15 58.35,23.42 Z" fill="#FFC107"/>
  <path d="M80.79,20.38 L70.95,20.38 C70.84,20.38 70.74,20.34 70.66,20.28 C70.37,20.91 70.11,21.61 69.88,22.35 L77.6,22.35 C78.56,22.35 79.51,22.07 80.31,21.53 C80.54,21.38 80.76,21.22 81,21.05 C81.29,20.84 81.15,20.38 80.79,20.38 Z" fill="#FFC107"/>
  <path d="M85.18,17.01 L72.54,17.01 C72.17,17.53 71.66,18.31 71.14,19.31 L81.13,19.31 C82.56,19.31 83.94,18.8 85.01,17.85 C85.13,17.74 85.25,17.63 85.38,17.52 C85.57,17.34 85.44,17.01 85.18,17.01 Z" fill="#FFC107"/>
  <path d="M76.38,23.42 L69.59,23.42 C69.42,24.15 69.3,24.92 69.24,25.72 L70.03,25.72 C70.03,25.72 72.36,25.86 76.47,23.81 C76.65,23.71 76.59,23.42 76.38,23.42 Z" fill="#FFC107"/>
  <path d="M68.22,14.33 C67.46,14.68 66.56,14.89 65.73,15.02 C64.56,15.2 63.37,15.2 62.2,15.02 C61.37,14.89 60.47,14.68 59.71,14.33 C59.23,14.11 58.67,14.35 58.47,14.84 L57.67,16.82 C57.46,17.34 57.5,17.68 57.69,17.94 C58.4,18.9 60.08,21.53 60.19,24.7 C60.2,25.05 60.39,25.37 60.71,25.53 C61.36,25.84 62.5,26.44 63.35,27.14 C63.71,27.44 64.21,27.44 64.57,27.14 C65.43,26.43 66.56,25.84 67.21,25.53 C67.53,25.38 67.72,25.06 67.73,24.7 C67.84,21.53 69.53,18.91 70.23,17.94 C70.42,17.68 70.46,17.34 70.34,17.05 C70.11,16.49 69.74,15.56 69.45,14.84 C69.27,14.35 68.7,14.11 68.22,14.33 Z" fill="#FFC107"/>
  <path d="M23.33,34.04 C24.95,39.98 26.51,42.43 26.51,42.43 C28.16,40.51 36.83,31.24 63.96,31.24 C63.97,31.24 64.08,31.24 64.08,31.24 L64.08,31.24 C64.08,31.24 64.08,31.24 64.12,31.24 C91.26,31.24 98.73,40.51 100.38,42.43 C100.38,42.43 103.24,39.6 104.74,33.62 C108.27,19.48 90.05,4.71 64.21,4.71 C37.14,4.71 19.58,20.32 23.33,34.04 Z" fill="url(#SVGID_2_)" opacity="0.3"/>
  <path d="M40.01,50.7 C43,46.47 49.79,46.07 53.68,49.22 C54.3,49.72 55.12,50.42 55.36,51.2 C55.76,52.47 54.54,53.46 53.35,53.16 C52.59,52.97 51.88,52.56 51.13,52.33 C49.76,51.9 48.77,51.78 47.54,51.78 C45.72,51.77 44.55,52 42.82,52.7 C42.11,52.99 41.53,53.45 40.72,53.11 C39.79,52.72 39.44,51.54 40.01,50.7 Z" fill="#613E31"/>
  <path d="M86.06,53.1 C85.77,52.97 85.49,52.81 85.2,52.69 C83.42,51.95 82.41,51.76 80.48,51.77 C78.78,51.78 77.77,52.01 76.44,52.46 C75.63,52.74 74.6,53.44 73.7,53.17 C72.38,52.77 72.42,51.33 73.14,50.41 C74,49.33 75.18,48.51 76.43,47.97 C79.33,46.71 82.87,46.89 85.6,48.52 C86.49,49.05 87.46,49.78 88,50.7 C88.79,52.01 87.61,53.73 86.06,53.1 Z" fill="#613E31"/>
</svg>
